icons/hexagon-star-outline.svg

<svg xmlns="http://www.w3.org/2000/svg" width="24" height="24" viewBox="0 0 24 24">
  <path d="M16.3174576,1 C17.4115312,1 18.4188507,1.59559898 18.9461053,2.55424375 L18.9461053,2.55424375 L23.3461053,10.5542438 C23.8412416,11.4544917 23.8412416,12.5455083 23.3461053,13.4457562 L23.3461053,13.4457562 L18.9461053,21.4457562 C18.4188507,22.404401 17.4115312,23 16.3174576,23 L16.3174576,23 L7.68254244,23 C6.58846875,23 5.58114934,22.404401 5.05389472,21.4457562 L5.05389472,21.4457562 L0.653894716,13.4457562 C0.158758351,12.5455083 0.158758351,11.4544917 0.653894716,10.5542438 L0.653894716,10.5542438 L5.05389472,2.55424375 C5.58114934,1.59559898 6.58846875,1 7.68254244,1 L7.68254244,1 Z M16.3174576,3 L7.68254244,3 C7.31785121,3 6.98207807,3.19853299 6.80632653,3.51808125 L6.80632653,3.51808125 L2.40632653,11.5180813 C2.24128108,11.8181639 2.24128108,12.1818361 2.40632653,12.4819187 L2.40632653,12.4819187 L6.80632653,20.4819187 C6.98207807,20.801467 7.31785121,21 7.68254244,21 L7.68254244,21 L16.3174576,21 C16.6821488,21 17.0179219,20.801467 17.1936735,20.4819187 L17.1936735,20.4819187 L21.5936735,12.4819187 C21.7587189,12.1818361 21.7587189,11.8181639 21.5936735,11.5180813 L21.5936735,11.5180813 L17.1936735,3.51808125 C17.0179219,3.19853299 16.6821488,3 16.3174576,3 L16.3174576,3 Z M12.4425657,6.36281539 C12.6397783,6.46014562 12.7994058,6.61977315 12.8967361,6.81698575 L14.0572484,9.16844052 L16.6522328,9.54551383 C17.1987777,9.62493144 17.5774591,10.1323743 17.4980415,10.6789192 C17.466417,10.8965562 17.3639298,11.0976986 17.2064462,11.2512072 L15.3286978,13.0815595 L15.7719741,15.6660584 C15.8653351,16.2103948 15.4997472,16.7273507 14.9554108,16.8207118 C14.7386532,16.8578886 14.5156851,16.8225739 14.3210246,16.7202349 L12,15.5 L9.67897539,16.7202349 C9.1901308,16.9772357 8.58550365,16.7892891 8.32850284,16.3004446 C8.22616377,16.1057841 8.19084909,15.882816 8.22802594,15.6660584 L8.67130219,13.0815595 L6.79355384,11.2512072 C6.39807026,10.865706 6.38997795,10.2325927 6.77547916,9.83710915 C6.92898777,9.67962551 7.13013018,9.57713834 7.34776721,9.54551383 L9.94275162,9.16844052 L11.1032639,6.81698575 C11.3476862,6.32173209 11.9473121,6.11839309 12.4425657,6.36281539 Z"/>
</svg>

<svg xmlns="http://www.w3.org/2000/svg" viewBox="0 0 24 24">
  <path d="M16.32 1a3 3 0 0 1 2.63 1.55l4.4 8c.5.9.5 2 0 2.9l-4.4 8A3 3 0 0 1 16.32 23H7.68a3 3 0 0 1-2.63-1.55l-4.4-8a3 3 0 0 1 0-2.9l4.4-8A3 3 0 0 1 7.68 1zm0 2H7.68a1 1 0 0 0-.87.52l-4.4 8a1 1 0 0 0 0 .96l4.4 8a1 1 0 0 0 .87.52h8.64a1 1 0 0 0 .87-.52l4.4-8a1 1 0 0 0 0-.96l-4.4-8a1 1 0 0 0-.87-.52zm-3.88 3.36c.2.1.36.26.46.46l1.16 2.35 2.6.38a1 1 0 0 1 .55 1.7l-1.88 1.83.44 2.59a1 1 0 0 1-1.45 1.05L12 15.5l-2.32 1.22a1 1 0 0 1-1.45-1.05l.44-2.59-1.88-1.83a1 1 0 0 1 .56-1.7l2.6-.38 1.15-2.35a1 1 0 0 1 1.34-.46z"/>
</svg>
